lib/assets/icons/svg/outlined-action-change.svg

<svg xmlns="http://www.w3.org/2000/svg" viewBox="0 0 24 24"><path d="M13.48 12.845a.5.5 0 0 1-.35-.86l3.846-3.811-11.171-.149a.502.502 0 0 1-.485-.51.461.461 0 0 1 .533-.49l11.064.111-3.787-3.761a.5.5 0 1 1 .7-.7l4.7 4.65a.551.551 0 0 1 .15.36.511.511 0 0 1-.15.35l-4.71 4.66a.486.486 0 0 1-.34.15zm-2.96 8.68a.507.507 0 0 1-.36-.15l-4.7-4.65a.545.545 0 0 1-.14-.36.5.5 0 0 1 .14-.34l4.7-4.66a.502.502 0 0 1 .71.71l-3.825 3.79h11.096c.377 0 .611.417.424.75a.487.487 0 0 1-.424.25H7.023l3.847 3.82a.49.49 0 0 1-.35.84z"/></svg>

<svg viewBox="0 0 24 24" xmlns="http://www.w3.org/2000/svg">
  <path  d="M 13.48 12.845 C 13.095 12.847 12.852 12.432 13.042 12.098 C 13.066 12.056 13.096 12.018 13.13 11.985 L 16.976 8.174 L 5.805 8.025 C 5.535 8.02 5.32 7.793 5.32 7.515 C 5.303 7.213 5.564 6.973 5.853 7.025 L 16.917 7.136 L 13.13 3.375 C 12.822 3.144 12.88 2.666 13.234 2.515 C 13.445 2.425 13.692 2.491 13.83 2.675 L 18.53 7.325 C 18.622 7.423 18.676 7.551 18.68 7.685 C 18.677 7.817 18.623 7.942 18.53 8.035 L 13.82 12.695 C 13.731 12.788 13.609 12.842 13.48 12.845 Z M 10.52 21.525 C 10.385 21.525 10.255 21.471 10.16 21.375 L 5.46 16.725 C 5.371 16.626 5.321 16.498 5.32 16.365 C 5.322 16.238 5.372 16.116 5.46 16.025 L 10.16 11.365 C 10.433 11.092 10.9 11.217 11 11.59 C 11.046 11.763 10.997 11.948 10.87 12.075 L 7.045 15.865 L 18.141 15.865 C 18.518 15.865 18.752 16.282 18.565 16.615 C 18.478 16.77 18.316 16.865 18.141 16.865 L 7.023 16.865 L 10.87 20.685 C 11.066 20.877 11.066 21.193 10.87 21.385 C 10.777 21.476 10.651 21.527 10.52 21.525 Z"/>
</svg>
